X: 9171
T: Dálaigh's
R: polka
M: 2/4
K: Edorian
|:E>F GA|Be ed|Bd/B/ AF|EF DF|
E>F GA|Be ed|Bd/B/ AF|1 GE ED:|2 GE E2||
|:e e2 f|g>a ge|d>c de|fa df|
e e2 f|g>a ge|d>B AF|1 GE E2:|2 GE ED||

